assets/landing_icons/python-icon.svg

<svg width="92" height="87" viewBox="0 0 92 87" fill="none" xmlns="http://www.w3.org/2000/svg">
<g filter="url(#filter0_dddd_197_2284)">
<path fill-rule="evenodd" clip-rule="evenodd" d="M38.8065 6.58648C40.8627 6.22263 43.1996 6.01394 45.6466 6.00257C48.0936 5.9912 50.645 6.17715 53.104 6.58648C56.9885 7.2339 60.261 10.1479 60.261 14.0272V27.6573C60.261 31.6542 57.0839 34.9311 53.104 34.9311H38.8065C33.9522 34.9311 29.8644 39.0986 29.8644 43.8232V46.363C29.8644 48.5721 28.0735 50.363 25.8644 50.363H24.9428C20.7827 50.363 18.3528 47.3435 17.3353 43.1058C15.9628 37.4128 16.021 34.0105 17.3353 28.5582C18.4747 23.8014 22.1174 21.301 26.2775 21.301H45.0544C45.5565 21.301 45.9636 20.8939 45.9636 20.3918C45.9636 19.8896 45.5565 19.4825 45.0544 19.4825H35.6495C33.4403 19.4825 31.6495 17.6917 31.6495 15.4825V14.0272C31.6495 9.89646 32.7492 7.6566 38.8065 6.58648ZM40.5916 13.1263C40.5916 11.6174 39.3842 10.3902 37.9056 10.3902C36.4218 10.3902 35.2196 11.6174 35.2196 13.1263C35.2196 14.6298 36.4218 15.8456 37.9056 15.8456C39.3842 15.8456 40.5916 14.6298 40.5916 13.1263Z" fill="url(#paint0_radial_197_2284)"/>
<path fill-rule="evenodd" clip-rule="evenodd" d="M62.0461 25.301C62.0461 23.0919 63.837 21.301 66.0461 21.301H67.4181C71.5834 21.301 73.547 24.4168 74.5751 28.5582C76.006 34.3101 76.0696 38.622 74.5751 43.1058C73.1284 47.4613 71.5782 50.363 67.4181 50.363H46.8728C46.3706 50.363 45.9635 50.7701 45.9635 51.2722C45.9635 51.7744 46.3706 52.1815 46.8728 52.1815H56.261C58.4701 52.1815 60.261 53.9723 60.261 56.1815V57.6368C60.261 61.7675 56.7076 63.8673 53.1039 64.9107C47.6826 66.4838 43.3375 66.243 38.8065 64.9107C35.0227 63.7978 31.6494 61.5161 31.6494 57.6368V44.0067C31.6494 40.0847 34.8902 36.7329 38.8065 36.7329H53.1039C57.8682 36.7329 62.0461 32.5852 62.0461 27.6573V25.301ZM56.6908 58.5377C56.6908 57.0342 55.4887 55.8184 54.0048 55.8184C52.5263 55.8184 51.3188 57.0342 51.3188 58.5377C51.3188 60.0466 52.5263 61.2738 54.0048 61.2738C55.4887 61.2738 56.6908 60.0466 56.6908 58.5377Z" fill="url(#paint1_radial_197_2284)"/>
</g>
<g filter="url(#filter1_dddi_197_2284)">
<path d="M45.6466 6.00257C43.1996 6.01394 40.8627 6.22263 38.8065 6.58648C32.7492 7.6566 31.6495 9.89646 31.6495 14.0272V15.4825C31.6495 17.6917 33.4403 19.4825 35.6495 19.4825H45.0544C45.5565 19.4825 45.9636 19.8896 45.9636 20.3918C45.9636 20.8939 45.5565 21.301 45.0544 21.301H31.6495H26.2775C22.1174 21.301 18.4747 23.8014 17.3353 28.5582C16.021 34.0105 15.9628 37.4128 17.3353 43.1058C18.3528 47.3435 20.7827 50.363 24.9428 50.363H25.8644C28.0735 50.363 29.8644 48.5721 29.8644 46.363V43.8232C29.8644 39.0986 33.9522 34.9311 38.8065 34.9311H53.104C57.0839 34.9311 60.261 31.6542 60.261 27.6573V14.0272C60.261 10.1479 56.9885 7.2339 53.104 6.58648C50.645 6.17715 48.0936 5.9912 45.6466 6.00257ZM37.9056 10.3902C39.3842 10.3902 40.5916 11.6174 40.5916 13.1263C40.5916 14.6298 39.3842 15.8456 37.9056 15.8456C36.4218 15.8456 35.2196 14.6298 35.2196 13.1263C35.2196 11.6174 36.4218 10.3902 37.9056 10.3902Z" fill="url(#paint2_radial_197_2284)"/>
</g>
<g filter="url(#filter2_dddd_197_2284)">
<path d="M62.0461 21.301V27.6572C62.0461 32.5852 57.8682 36.7329 53.1039 36.7329H38.8065C34.8902 36.7329 31.6494 40.0847 31.6494 44.0067V57.6368C31.6494 61.516 35.0227 63.7977 38.8065 64.9107C43.3375 66.243 47.6826 66.4837 53.1039 64.9107C56.7076 63.8673 60.261 61.7675 60.261 57.6368V52.1814H45.9635V50.363H60.261H67.4181C71.5782 50.363 73.1284 47.4612 74.5751 43.1058C76.0696 38.622 76.006 34.3101 74.5751 28.5581C73.547 24.4167 71.5834 21.301 67.4181 21.301H62.0461ZM54.0048 55.8184C55.4887 55.8184 56.6908 57.0342 56.6908 58.5377C56.6908 60.0466 55.4887 61.2737 54.0048 61.2737C52.5263 61.2737 51.3188 60.0466 51.3188 58.5377C51.3188 57.0342 52.5263 55.8184 54.0048 55.8184Z" fill="url(#paint3_radial_197_2284)"/>
</g>
<defs>
<filter id="filter0_dddd_197_2284" x="0.327637" y="0.0020752" width="91.3447" height="92" filterUnits="userSpaceOnUse" color-interpolation-filters="sRGB">
<feFlood flood-opacity="0" result="BackgroundImageFix"/>
<feColorMatrix in="SourceAlpha" type="matrix" values="0 0 0 0 0 0 0 0 0 0 0 0 0 0 0 0 0 0 127 0" result="hardAlpha"/>
<feOffset dy="10"/>
<feGaussianBlur stdDeviation="8"/>
<feColorMatrix type="matrix" values="0 0 0 0 0.0470588 0 0 0 0 0.152941 0 0 0 0 0.333333 0 0 0 0.01 0"/>
<feBlend mode="normal" in2="BackgroundImageFix" result="effect1_dropShadow_197_2284"/>
<feColorMatrix in="SourceAlpha" type="matrix" values="0 0 0 0 0 0 0 0 0 0 0 0 0 0 0 0 0 0 127 0" result="hardAlpha"/>
<feOffset dy="10"/>
<feGaussianBlur stdDeviation="3"/>
<feColorMatrix type="matrix" values="0 0 0 0 0.0470588 0 0 0 0 0.152941 0 0 0 0 0.333333 0 0 0 0.04 0"/>
<feBlend mode="normal" in2="effect1_dropShadow_197_2284" result="effect2_dropShadow_197_2284"/>
<feColorMatrix in="SourceAlpha" type="matrix" values="0 0 0 0 0 0 0 0 0 0 0 0 0 0 0 0 0 0 127 0" result="hardAlpha"/>
<feOffset dy="4"/>
<feGaussianBlur stdDeviation="1.5"/>
<feColorMatrix type="matrix" values="0 0 0 0 0.0470588 0 0 0 0 0.152941 0 0 0 0 0.333333 0 0 0 0.12 0"/>
<feBlend mode="normal" in2="effect2_dropShadow_197_2284" result="effect3_dropShadow_197_2284"/>
<feColorMatrix in="SourceAlpha" type="matrix" values="0 0 0 0 0 0 0 0 0 0 0 0 0 0 0 0 0 0 127 0" result="hardAlpha"/>
<feOffset dx="-1" dy="1"/>
<feComposite in2="hardAlpha" operator="out"/>
<feColorMatrix type="matrix" values="0 0 0 0 0.0470588 0 0 0 0 0.152941 0 0 0 0 0.333333 0 0 0 0.02 0"/>
<feBlend mode="normal" in2="effect3_dropShadow_197_2284" result="effect4_dropShadow_197_2284"/>
<feBlend mode="normal" in="SourceGraphic" in2="effect4_dropShadow_197_2284" result="shape"/>
</filter>
<filter id="filter1_dddi_197_2284" x="12.3276" y="6.00208" width="51.9336" height="52.3609" filterUnits="userSpaceOnUse" color-interpolation-filters="sRGB">
<feFlood flood-opacity="0" result="BackgroundImageFix"/>
<feColorMatrix in="SourceAlpha" type="matrix" values="0 0 0 0 0 0 0 0 0 0 0 0 0 0 0 0 0 0 127 0" result="hardAlpha"/>
<feOffset dy="4"/>
<feGaussianBlur stdDeviation="1"/>
<feComposite in2="hardAlpha" operator="out"/>
<feColorMatrix type="matrix" values="0 0 0 0 0.0470588 0 0 0 0 0.152941 0 0 0 0 0.333333 0 0 0 0.08 0"/>
<feBlend mode="normal" in2="BackgroundImageFix" result="effect1_dropShadow_197_2284"/>
<feColorMatrix in="SourceAlpha" type="matrix" values="0 0 0 0 0 0 0 0 0 0 0 0 0 0 0 0 0 0 127 0" result="hardAlpha"/>
<feOffset dy="4"/>
<feGaussianBlur stdDeviation="2"/>
<feComposite in2="hardAlpha" operator="out"/>
<feColorMatrix type="matrix" values="0 0 0 0 0.0470588 0 0 0 0 0.152941 0 0 0 0 0.333333 0 0 0 0.12 0"/>
<feBlend mode="normal" in2="effect1_dropShadow_197_2284" result="effect2_dropShadow_197_2284"/>
<feColorMatrix in="SourceAlpha" type="matrix" values="0 0 0 0 0 0 0 0 0 0 0 0 0 0 0 0 0 0 127 0" result="hardAlpha"/>
<feOffset dy="4"/>
<feGaussianBlur stdDeviation="1"/>
<feComposite in2="hardAlpha" operator="out"/>
<feColorMatrix type="matrix" values="0 0 0 0 0.0470588 0 0 0 0 0.152941 0 0 0 0 0.333333 0 0 0 0.08 0"/>
<feBlend mode="normal" in2="effect2_dropShadow_197_2284" result="effect3_dropShadow_197_2284"/>
<feBlend mode="normal" in="SourceGraphic" in2="effect3_dropShadow_197_2284" result="shape"/>
<feColorMatrix in="SourceAlpha" type="matrix" values="0 0 0 0 0 0 0 0 0 0 0 0 0 0 0 0 0 0 127 0" result="hardAlpha"/>
<feOffset dy="4"/>
<feGaussianBlur stdDeviation="2"/>
<feComposite in2="hardAlpha" operator="arithmetic" k2="-1" k3="1"/>
<feColorMatrix type="matrix" values="0 0 0 0 1 0 0 0 0 1 0 0 0 0 1 0 0 0 0.4 0"/>
<feBlend mode="normal" in2="shape" result="effect4_innerShadow_197_2284"/>
</filter>
<filter id="filter2_dddd_197_2284" x="15.6494" y="15.301" width="76.0229" height="76.7011" filterUnits="userSpaceOnUse" color-interpolation-filters="sRGB">
<feFlood flood-opacity="0" result="BackgroundImageFix"/>
<feColorMatrix in="SourceAlpha" type="matrix" values="0 0 0 0 0 0 0 0 0 0 0 0 0 0 0 0 0 0 127 0" result="hardAlpha"/>
<feOffset dy="10"/>
<feGaussianBlur stdDeviation="8"/>
<feColorMatrix type="matrix" values="0 0 0 0 0.0470588 0 0 0 0 0.152941 0 0 0 0 0.333333 0 0 0 0.02 0"/>
<feBlend mode="normal" in2="BackgroundImageFix" result="effect1_dropShadow_197_2284"/>
<feColorMatrix in="SourceAlpha" type="matrix" values="0 0 0 0 0 0 0 0 0 0 0 0 0 0 0 0 0 0 127 0" result="hardAlpha"/>
<feOffset dy="10"/>
<feGaussianBlur stdDeviation="3"/>
<feColorMatrix type="matrix" values="0 0 0 0 0.0470588 0 0 0 0 0.152941 0 0 0 0 0.333333 0 0 0 0.06 0"/>
<feBlend mode="normal" in2="effect1_dropShadow_197_2284" result="effect2_dropShadow_197_2284"/>
<feColorMatrix in="SourceAlpha" type="matrix" values="0 0 0 0 0 0 0 0 0 0 0 0 0 0 0 0 0 0 127 0" result="hardAlpha"/>
<feOffset dy="4"/>
<feGaussianBlur stdDeviation="1.5"/>
<feColorMatrix type="matrix" values="0 0 0 0 0.0470588 0 0 0 0 0.152941 0 0 0 0 0.333333 0 0 0 0.12 0"/>
<feBlend mode="normal" in2="effect2_dropShadow_197_2284" result="effect3_dropShadow_197_2284"/>
<feColorMatrix in="SourceAlpha" type="matrix" values="0 0 0 0 0 0 0 0 0 0 0 0 0 0 0 0 0 0 127 0" result="hardAlpha"/>
<feOffset dx="-1" dy="1"/>
<feComposite in2="hardAlpha" operator="out"/>
<feColorMatrix type="matrix" values="0 0 0 0 0.0470588 0 0 0 0 0.152941 0 0 0 0 0.333333 0 0 0 0.04 0"/>
<feBlend mode="normal" in2="effect3_dropShadow_197_2284" result="effect4_dropShadow_197_2284"/>
<feBlend mode="normal" in="SourceGraphic" in2="effect4_dropShadow_197_2284" result="shape"/>
</filter>
<radialGradient id="paint0_radial_197_2284" cx="0" cy="0" r="1" gradientUnits="userSpaceOnUse" gradientTransform="translate(53.6608 21.301) rotate(90) scale(44.7011 44.0228)">
<stop stop-color="white"/>
<stop offset="1" stop-color="#F7F7F7"/>
</radialGradient>
<radialGradient id="paint1_radial_197_2284" cx="0" cy="0" r="1" gradientUnits="userSpaceOnUse" gradientTransform="translate(53.6608 21.301) rotate(90) scale(44.7011 44.0228)">
<stop stop-color="white"/>
<stop offset="1" stop-color="#F7F7F7"/>
</radialGradient>
<radialGradient id="paint2_radial_197_2284" cx="0" cy="0" r="1" gradientUnits="userSpaceOnUse" gradientTransform="translate(38.2943 6.00208) rotate(90) scale(44.3609 43.9334)">
<stop stop-color="#F2F7FF"/>
<stop stop-color="#FAF7FF"/>
<stop offset="1" stop-color="#E6EFFF"/>
</radialGradient>
<radialGradient id="paint3_radial_197_2284" cx="0" cy="0" r="1" gradientUnits="userSpaceOnUse" gradientTransform="translate(59.3438 32.6989) rotate(90) scale(33.3031 32.6569)">
<stop stop-color="white"/>
<stop offset="1" stop-color="#F7F7F7"/>
</radialGradient>
</defs>
</svg>

<svg xmlns="http://www.w3.org/2000/svg" width="92" height="87" fill="none" viewBox="0 0 92 87"><g fill-rule="evenodd" clip-rule="evenodd" filter="url(#a)"><path fill="url(#b)" d="M38.807 6.586c2.056-.363 4.393-.572 6.84-.583a44.7 44.7 0 0 1 7.457.583c3.885.648 7.157 3.562 7.157 7.441v13.63c0 3.997-3.177 7.274-7.157 7.274H38.807c-4.855 0-8.943 4.168-8.943 8.892v2.54a4 4 0 0 1-4 4h-.921c-4.16 0-6.59-3.02-7.608-7.257-1.372-5.693-1.314-9.096 0-14.548 1.14-4.757 4.782-7.257 8.942-7.257h18.777a.91.91 0 0 0 0-1.818H35.65a4 4 0 0 1-4-4v-1.456c0-4.13 1.1-6.37 7.157-7.44m1.785 6.54c0-1.509-1.208-2.736-2.686-2.736-1.484 0-2.686 1.227-2.686 2.736 0 1.504 1.202 2.72 2.686 2.72 1.478 0 2.686-1.216 2.686-2.72"/><path fill="url(#c)" d="M62.046 25.301a4 4 0 0 1 4-4h1.372c4.165 0 6.129 3.116 7.157 7.257 1.431 5.752 1.495 10.064 0 14.548-1.447 4.355-2.997 7.257-7.157 7.257H46.873a.91.91 0 1 0 0 1.819h9.388a4 4 0 0 1 4 4v1.455c0 4.13-3.553 6.23-7.157 7.274-5.421 1.573-9.766 1.332-14.297 0-3.784-1.113-7.158-3.395-7.158-7.274v-13.63c0-3.922 3.241-7.274 7.157-7.274h14.298c4.764 0 8.942-4.148 8.942-9.076zm-5.355 33.237c0-1.504-1.202-2.72-2.686-2.72-1.479 0-2.686 1.216-2.686 2.72 0 1.509 1.207 2.736 2.686 2.736 1.484 0 2.686-1.227 2.686-2.736"/></g><g filter="url(#d)"><path fill="url(#e)" d="M45.647 6.003c-2.447.01-4.784.22-6.84.583-6.058 1.07-7.158 3.31-7.158 7.441v1.456a4 4 0 0 0 4 4h9.405a.91.91 0 0 1 0 1.818H26.277c-4.16 0-7.802 2.5-8.942 7.257-1.314 5.453-1.372 8.855 0 14.548 1.018 4.237 3.448 7.257 7.608 7.257h.921a4 4 0 0 0 4-4v-2.54c0-4.724 4.088-8.892 8.942-8.892h14.298c3.98 0 7.157-3.277 7.157-7.274v-13.63c0-3.88-3.273-6.793-7.157-7.44a44.7 44.7 0 0 0-7.457-.584m-7.741 4.387c1.478 0 2.686 1.227 2.686 2.736 0 1.504-1.208 2.72-2.686 2.72-1.484 0-2.686-1.216-2.686-2.72 0-1.509 1.202-2.736 2.686-2.736"/></g><g filter="url(#f)"><path fill="url(#g)" d="M62.046 21.301v6.356c0 4.928-4.178 9.076-8.942 9.076H38.807c-3.917 0-7.158 3.352-7.158 7.274v13.63c0 3.879 3.374 6.16 7.157 7.274 4.532 1.332 8.877 1.573 14.298 0 3.604-1.044 7.157-3.144 7.157-7.274V52.18H45.964v-1.818h21.454c4.16 0 5.71-2.902 7.157-7.257 1.495-4.484 1.431-8.796 0-14.548-1.028-4.141-2.992-7.257-7.157-7.257zm-8.041 34.517c1.484 0 2.686 1.216 2.686 2.72 0 1.509-1.202 2.736-2.686 2.736-1.479 0-2.686-1.227-2.686-2.736 0-1.504 1.207-2.72 2.686-2.72"/></g><defs><radialGradient id="b" cx="0" cy="0" r="1" gradientTransform="matrix(0 44.7011 -44.0228 0 53.66 21.301)" gradientUnits="userSpaceOnUse"><stop stop-color="#fff"/><stop offset="1" stop-color="#F7F7F7"/></radialGradient><radialGradient id="c" cx="0" cy="0" r="1" gradientTransform="matrix(0 44.7011 -44.0228 0 53.66 21.301)" gradientUnits="userSpaceOnUse"><stop stop-color="#fff"/><stop offset="1" stop-color="#F7F7F7"/></radialGradient><radialGradient id="e" cx="0" cy="0" r="1" gradientTransform="matrix(0 44.3609 -43.9334 0 38.294 6.002)" gradientUnits="userSpaceOnUse"><stop stop-color="#F2F7FF"/><stop stop-color="#FAF7FF"/><stop offset="1" stop-color="#E6EFFF"/></radialGradient><radialGradient id="g" cx="0" cy="0" r="1" gradientTransform="matrix(0 33.3031 -32.6569 0 59.37 32.704)" gradientUnits="userSpaceOnUse"><stop stop-color="#fff"/><stop offset="1" stop-color="#F7F7F7"/></radialGradient><filter id="a" width="91.345" height="92" x=".328" y=".002" color-interpolation-filters="sRGB" filterUnits="userSpaceOnUse"><feFlood flood-opacity="0" result="BackgroundImageFix"/><feColorMatrix in="SourceAlpha" result="hardAlpha" values="0 0 0 0 0 0 0 0 0 0 0 0 0 0 0 0 0 0 127 0"/><feOffset dy="10"/><feGaussianBlur stdDeviation="8"/><feColorMatrix values="0 0 0 0 0.0470588 0 0 0 0 0.152941 0 0 0 0 0.333333 0 0 0 0.01 0"/><feBlend in2="BackgroundImageFix" result="effect1_dropShadow_197_2284"/><feColorMatrix in="SourceAlpha" result="hardAlpha" values="0 0 0 0 0 0 0 0 0 0 0 0 0 0 0 0 0 0 127 0"/><feOffset dy="10"/><feGaussianBlur stdDeviation="3"/><feColorMatrix values="0 0 0 0 0.0470588 0 0 0 0 0.152941 0 0 0 0 0.333333 0 0 0 0.04 0"/><feBlend in2="effect1_dropShadow_197_2284" result="effect2_dropShadow_197_2284"/><feColorMatrix in="SourceAlpha" result="hardAlpha" values="0 0 0 0 0 0 0 0 0 0 0 0 0 0 0 0 0 0 127 0"/><feOffset dy="4"/><feGaussianBlur stdDeviation="1.5"/><feColorMatrix values="0 0 0 0 0.0470588 0 0 0 0 0.152941 0 0 0 0 0.333333 0 0 0 0.12 0"/><feBlend in2="effect2_dropShadow_197_2284" result="effect3_dropShadow_197_2284"/><feColorMatrix in="SourceAlpha" result="hardAlpha" values="0 0 0 0 0 0 0 0 0 0 0 0 0 0 0 0 0 0 127 0"/><feOffset dx="-1" dy="1"/><feComposite in2="hardAlpha" operator="out"/><feColorMatrix values="0 0 0 0 0.0470588 0 0 0 0 0.152941 0 0 0 0 0.333333 0 0 0 0.02 0"/><feBlend in2="effect3_dropShadow_197_2284" result="effect4_dropShadow_197_2284"/><feBlend in="SourceGraphic" in2="effect4_dropShadow_197_2284" result="shape"/></filter><filter id="d" width="51.934" height="52.361" x="12.328" y="6.002" color-interpolation-filters="sRGB" filterUnits="userSpaceOnUse"><feFlood flood-opacity="0" result="BackgroundImageFix"/><feColorMatrix in="SourceAlpha" result="hardAlpha" values="0 0 0 0 0 0 0 0 0 0 0 0 0 0 0 0 0 0 127 0"/><feOffset dy="4"/><feGaussianBlur stdDeviation="1"/><feComposite in2="hardAlpha" operator="out"/><feColorMatrix values="0 0 0 0 0.0470588 0 0 0 0 0.152941 0 0 0 0 0.333333 0 0 0 0.08 0"/><feBlend in2="BackgroundImageFix" result="effect1_dropShadow_197_2284"/><feColorMatrix in="SourceAlpha" result="hardAlpha" values="0 0 0 0 0 0 0 0 0 0 0 0 0 0 0 0 0 0 127 0"/><feOffset dy="4"/><feGaussianBlur stdDeviation="2"/><feComposite in2="hardAlpha" operator="out"/><feColorMatrix values="0 0 0 0 0.0470588 0 0 0 0 0.152941 0 0 0 0 0.333333 0 0 0 0.12 0"/><feBlend in2="effect1_dropShadow_197_2284" result="effect2_dropShadow_197_2284"/><feColorMatrix in="SourceAlpha" result="hardAlpha" values="0 0 0 0 0 0 0 0 0 0 0 0 0 0 0 0 0 0 127 0"/><feOffset dy="4"/><feGaussianBlur stdDeviation="1"/><feComposite in2="hardAlpha" operator="out"/><feColorMatrix values="0 0 0 0 0.0470588 0 0 0 0 0.152941 0 0 0 0 0.333333 0 0 0 0.08 0"/><feBlend in2="effect2_dropShadow_197_2284" result="effect3_dropShadow_197_2284"/><feBlend in="SourceGraphic" in2="effect3_dropShadow_197_2284" result="shape"/><feColorMatrix in="SourceAlpha" result="hardAlpha" values="0 0 0 0 0 0 0 0 0 0 0 0 0 0 0 0 0 0 127 0"/><feOffset dy="4"/><feGaussianBlur stdDeviation="2"/><feComposite in2="hardAlpha" k2="-1" k3="1" operator="arithmetic"/><feColorMatrix values="0 0 0 0 1 0 0 0 0 1 0 0 0 0 1 0 0 0 0.4 0"/><feBlend in2="shape" result="effect4_innerShadow_197_2284"/></filter><filter id="f" width="76.023" height="76.701" x="15.649" y="15.301" color-interpolation-filters="sRGB" filterUnits="userSpaceOnUse"><feFlood flood-opacity="0" result="BackgroundImageFix"/><feColorMatrix in="SourceAlpha" result="hardAlpha" values="0 0 0 0 0 0 0 0 0 0 0 0 0 0 0 0 0 0 127 0"/><feOffset dy="10"/><feGaussianBlur stdDeviation="8"/><feColorMatrix values="0 0 0 0 0.0470588 0 0 0 0 0.152941 0 0 0 0 0.333333 0 0 0 0.02 0"/><feBlend in2="BackgroundImageFix" result="effect1_dropShadow_197_2284"/><feColorMatrix in="SourceAlpha" result="hardAlpha" values="0 0 0 0 0 0 0 0 0 0 0 0 0 0 0 0 0 0 127 0"/><feOffset dy="10"/><feGaussianBlur stdDeviation="3"/><feColorMatrix values="0 0 0 0 0.0470588 0 0 0 0 0.152941 0 0 0 0 0.333333 0 0 0 0.06 0"/><feBlend in2="effect1_dropShadow_197_2284" result="effect2_dropShadow_197_2284"/><feColorMatrix in="SourceAlpha" result="hardAlpha" values="0 0 0 0 0 0 0 0 0 0 0 0 0 0 0 0 0 0 127 0"/><feOffset dy="4"/><feGaussianBlur stdDeviation="1.5"/><feColorMatrix values="0 0 0 0 0.0470588 0 0 0 0 0.152941 0 0 0 0 0.333333 0 0 0 0.12 0"/><feBlend in2="effect2_dropShadow_197_2284" result="effect3_dropShadow_197_2284"/><feColorMatrix in="SourceAlpha" result="hardAlpha" values="0 0 0 0 0 0 0 0 0 0 0 0 0 0 0 0 0 0 127 0"/><feOffset dx="-1" dy="1"/><feComposite in2="hardAlpha" operator="out"/><feColorMatrix values="0 0 0 0 0.0470588 0 0 0 0 0.152941 0 0 0 0 0.333333 0 0 0 0.04 0"/><feBlend in2="effect3_dropShadow_197_2284" result="effect4_dropShadow_197_2284"/><feBlend in="SourceGraphic" in2="effect4_dropShadow_197_2284" result="shape"/></filter></defs></svg>
